X: 1161
T: An Caitin Ban
R: jig
M: 6/8
K: Aminor
D|:EAA cBA|GAB c2d|e3 dcA|G3 E2D|
EAA cBA|GAB c2d|e3 dBG|A3 A2G:|
|:A2a aba|ge^f g3|age dcA|G3 E2D|
EAA cBA|GAB c2d|e3 dBG|A3 A2G:|

